src/images/icons/lectures.svg

<svg viewBox="0 0 100 100" xmlns="http://www.w3.org/2000/svg" xmlns:xlink="http://www.w3.org/1999/xlink"><title>lectures</title><desc>Created using Figma</desc><g transform="matrix(2 0 0 2 -600 -100)"><clipPath id="a" clip-rule="evenodd"><path d="M0 0h1398v646H0V0z" fill="#FFF"/></clipPath><g clip-path="url(#a)"><path d="M0 0h1398v646H0V0z" fill="#FFF"/><use xlink:href="#path0_stroke" transform="translate(305 58)"/><use xlink:href="#path1_stroke" transform="translate(304 58)"/><use xlink:href="#path1_stroke" transform="translate(304 84)"/><use xlink:href="#path2_stroke" transform="rotate(90 120.75 203.25)"/><g transform="translate(323 86)"><use xlink:href="#path3_fill" fill="#FFF"/><use xlink:href="#path4_stroke"/></g><use xlink:href="#path5_stroke" transform="translate(311 66)"/><g transform="translate(307 57)"><use xlink:href="#path6_fill" fill="#FFF"/><use xlink:href="#path7_stroke"/></g></g></g><defs><path id="path0_stroke" d="M1-2H0v2h1v-2zm38 2h1v-2h-1v2zM1 0h38v-2H1v2z"/><path id="path1_stroke" d="M1-2H0v2h1v-2zm40 2h1v-2h-1v2zM1 0h40v-2H1v2z"/><path id="path2_stroke" d="M1-2H0v2h1v-2zm3 2h1v-2H4v2zM1 0h3v-2H1v2z"/><path id="path3_fill" d="M4 2c0 1.10457-.89543 2-2 2-1.104569 0-2-.89543-2-2C0 .895431.895431 0 2 0c1.10457 0 2 .895431 2 2z"/><path id="path4_stroke" d="M3 2c0 .55228-.44772 1-1 1v2c1.65685 0 3-1.34315 3-3H3zM2 3c-.55228 0-1-.44772-1-1h-2C-1 3.65685.343146 5 2 5V3zM1 2c0-.55228.44772-1 1-1v-2C.343146-1-1 .343146-1 2h2zm1-1c.55228 0 1 .44772 1 1h2C5 .343146 3.65685-1 2-1v2z"/><path id="path5_stroke" d="M-.894427 27.5528l-.447213.8944 1.788854.8944.447213-.8944-1.788854-.8944zM14 0l.8944-.447214L14-2.23607l-.8944 1.788856L14 0zm13.1056 28.4472l.4472.8944 1.7888-.8944-.4472-.8944-1.7888.8944zm-26.211173 0L14.8944.447214l-1.7888-.894428L-.894427 27.5528l1.788854.8944zM13.1056.447214l14 27.999986 1.7888-.8944-14-28.000014-1.7888.894428z"/><path id="path6_fill" d="M0 0h36v26H0V0z"/><path id="path7_stroke" d="M0 0v-1h-1v1h1zm36 0h1v-1h-1v1zm0 26v1h1v-1h-1zM0 26h-1v1h1v-1zM0 1h36v-2H0v2zm35-1v26h2V0h-2zm1 25H0v2h36v-2zM1 26V0h-2v26h2z"/></defs></svg>

<svg width="100" height="100" viewBox="0 0 100 100" version="1.1" xmlns="http://www.w3.org/2000/svg" xmlns:xlink="http://www.w3.org/1999/xlink"><title>lectures</title><desc>Created using Figma</desc><g id="Canvas" transform="matrix(2 0 0 2 -600 -100)"><clipPath id="clip-0" clip-rule="evenodd"><path d="M 0 0L 1398 0L 1398 646L 0 646L 0 0Z" fill="#FFF"/></clipPath><g id="Frame" clip-path="url(#clip-0)"><path d="M 0 0L 1398 0L 1398 646L 0 646L 0 0Z" fill="#FFF"/><g id="Line 2.6"><use xlink:href="#path0_stroke" transform="translate(305 58)"/></g><g id="Line 2.7"><use xlink:href="#path1_stroke" transform="translate(304 58)"/></g><g id="Line 2.8"><use xlink:href="#path1_stroke" transform="translate(304 84)"/></g><g id="Line 2.9"><use xlink:href="#path2_stroke" transform="matrix(6.12323e-17 1 -1 6.12323e-17 324 82.5)"/></g><g id="Ellipse"><use xlink:href="#path3_fill" transform="translate(323 86)" fill="#FFF"/><use xlink:href="#path4_stroke" transform="translate(323 86)"/></g><g id="Vector"><use xlink:href="#path5_stroke" transform="translate(311 66)"/></g><g id="Rectangle"><use xlink:href="#path6_fill" transform="translate(307 57)" fill="#FFF"/><use xlink:href="#path7_stroke" transform="translate(307 57)"/></g></g></g><defs><path id="path0_stroke" d="M 1 -2L 0 -2L 0 0L 1 0L 1 -2ZM 39 0L 40 0L 40 -2L 39 -2L 39 0ZM 1 0L 39 0L 39 -2L 1 -2L 1 0Z"/><path id="path1_stroke" d="M 1 -2L 0 -2L 0 0L 1 0L 1 -2ZM 41 0L 42 0L 42 -2L 41 -2L 41 0ZM 1 0L 41 0L 41 -2L 1 -2L 1 0Z"/><path id="path2_stroke" d="M 1 -2L 0 -2L 0 0L 1 0L 1 -2ZM 4 0L 5 0L 5 -2L 4 -2L 4 0ZM 1 0L 4 0L 4 -2L 1 -2L 1 0Z"/><path id="path3_fill" d="M 4 2C 4 3.10457 3.10457 4 2 4C 0.895431 4 0 3.10457 0 2C 0 0.895431 0.895431 0 2 0C 3.10457 0 4 0.895431 4 2Z"/><path id="path4_stroke" d="M 3 2C 3 2.55228 2.55228 3 2 3L 2 5C 3.65685 5 5 3.65685 5 2L 3 2ZM 2 3C 1.44772 3 1 2.55228 1 2L -1 2C -1 3.65685 0.343146 5 2 5L 2 3ZM 1 2C 1 1.44772 1.44772 1 2 1L 2 -1C 0.343146 -1 -1 0.343146 -1 2L 1 2ZM 2 1C 2.55228 1 3 1.44772 3 2L 5 2C 5 0.343146 3.65685 -1 2 -1L 2 1Z"/><path id="path5_stroke" d="M -0.894427 27.5528L -1.34164 28.4472L 0.447214 29.3416L 0.894427 28.4472L -0.894427 27.5528ZM 14 0L 14.8944 -0.447214L 14 -2.23607L 13.1056 -0.447214L 14 0ZM 27.1056 28.4472L 27.5528 29.3416L 29.3416 28.4472L 28.8944 27.5528L 27.1056 28.4472ZM 0.894427 28.4472L 14.8944 0.447214L 13.1056 -0.447214L -0.894427 27.5528L 0.894427 28.4472ZM 13.1056 0.447214L 27.1056 28.4472L 28.8944 27.5528L 14.8944 -0.447214L 13.1056 0.447214Z"/><path id="path6_fill" d="M 0 0L 36 0L 36 26L 0 26L 0 0Z"/><path id="path7_stroke" d="M 0 0L 0 -1L -1 -1L -1 0L 0 0ZM 36 0L 37 0L 37 -1L 36 -1L 36 0ZM 36 26L 36 27L 37 27L 37 26L 36 26ZM 0 26L -1 26L -1 27L 0 27L 0 26ZM 0 1L 36 1L 36 -1L 0 -1L 0 1ZM 35 0L 35 26L 37 26L 37 0L 35 0ZM 36 25L 0 25L 0 27L 36 27L 36 25ZM 1 26L 1 0L -1 0L -1 26L 1 26Z"/></defs></svg>
